public/payments/common/interac.svg

<svg width="94" height="94" viewBox="0 0 94 94" fill="none" xmlns="http://www.w3.org/2000/svg">
<g clip-path="url(#clip0_197_286)">
<mask style="mask-type:luminance" maskUnits="userSpaceOnUse" x="-1" y="0" width="95" height="94">
<path d="M93.9996 0H-0.000366211V94H93.9996V0Z" fill="white"/>
</mask>
<g mask="url(#mask0_197_286)">
<path d="M9.16764 1.60156H84.8316C86.8385 1.60156 88.7633 2.39879 90.1824 3.81788C91.6015 5.23696 92.3987 7.16165 92.3987 9.16853V84.8323C92.3987 86.839 91.6015 88.7636 90.1825 90.1826C88.7635 91.6015 86.8389 92.3987 84.8322 92.3987H9.16656C7.16007 92.3987 5.23576 91.6017 3.81695 90.1829C2.39815 88.7641 1.60107 86.8398 1.60107 84.8334V9.168C1.60107 8.17436 1.79679 7.19045 2.17704 6.27245C2.5573 5.35444 3.11465 4.52033 3.81727 3.81772C4.51989 3.11511 5.35402 2.55777 6.27204 2.17752C7.19006 1.79727 8.17399 1.60156 9.16764 1.60156Z" fill="#FDB913"/>
<path d="M84.8331 1.60142C86.8397 1.60203 88.7639 2.39951 90.1826 3.81851C91.6013 5.2375 92.3984 7.16184 92.3986 9.16839V84.8321C92.3984 86.8387 91.6014 88.763 90.1826 90.1819C88.7639 91.6008 86.8396 92.3982 84.8331 92.3986H9.168C8.17428 92.3988 7.19025 92.2032 6.27213 91.8231C5.35401 91.4429 4.51979 90.8856 3.81712 90.1829C3.11445 89.4803 2.55711 88.6461 2.17694 87.728C1.79677 86.8099 1.60121 85.8258 1.60144 84.8321V9.16839C1.60125 8.17467 1.79682 7.19065 2.177 6.27253C2.55718 5.35441 3.11451 4.52018 3.81716 3.81749C4.51982 3.1148 5.35402 2.55741 6.27213 2.17718C7.19024 1.79694 8.17427 1.60129 9.168 1.60142H84.8331ZM84.8331 0H9.168C6.73721 0.00263299 4.40674 0.969449 2.68796 2.6883C0.969182 4.40715 0.00248859 6.73764 0 9.16839V84.8321C0.00268977 87.2628 0.969466 89.5931 2.68822 91.3118C4.40697 93.0305 6.73733 93.9973 9.16801 94H84.8331C87.2636 93.9972 89.5938 93.0303 91.3123 91.3116C93.0309 89.5929 93.9975 87.2626 94 84.8321V9.16839C93.9977 6.73778 93.0312 4.40736 91.3126 2.68851C89.594 0.969656 87.2637 0.00276458 84.8331 0Z" fill="white"/>
<path d="M52.2984 47.9802L52.2909 31.7238L56.5343 30.7168V32.8479C56.5343 32.8479 57.6335 30.0453 60.1843 29.3948C60.5653 29.272 60.9706 29.2448 61.3645 29.3155V33.4633C60.6005 33.4733 59.8456 33.6304 59.1411 33.9261C57.5731 34.5453 56.784 35.8965 56.784 37.9591L56.7867 46.9354L52.2984 47.9802Z" fill="#231F20"/>
<path d="M29.929 53.2665C29.929 53.2665 29.2391 52.2319 29.2391 48.5744V40.4799L27.0557 40.9993V37.6649L29.244 37.1481V33.5133L33.756 32.4474V36.0823L36.9443 35.325V38.6557L33.756 39.4125C33.756 39.4125 33.7511 46.0442 33.756 47.6547C33.756 51.4024 34.7506 52.1219 34.7506 52.1219L29.929 53.2665Z" fill="#231F20"/>
<path d="M37.4159 43.5954C37.4159 40.7054 37.8274 38.5969 38.711 36.9788C39.7622 35.0586 41.4861 33.8072 43.9975 33.2355C48.9475 32.1098 50.734 35.0397 50.6649 38.9685C50.6385 40.3736 50.645 41.0581 50.645 41.0581L41.9241 43.1078V43.2485C41.9241 45.9934 42.4996 47.296 44.2392 46.9271C45.7419 46.61 46.1599 45.6687 46.2786 44.5047C46.298 44.317 46.3072 43.8397 46.3072 43.8397L50.3925 42.8607C50.3925 42.8607 50.4022 43.1951 50.3963 43.5705C50.3607 45.1304 49.9071 49 44.2289 50.3425C38.8501 51.6192 37.4159 48.3344 37.4159 43.5954ZM44.1788 36.2636C42.7337 36.5915 41.9759 38.009 41.943 40.3575L46.3299 39.3127C46.3374 39.2064 46.3385 38.9723 46.3374 38.6055C46.3299 36.8326 45.7818 35.8968 44.1788 36.2636Z" fill="#231F20"/>
<path d="M76.636 34.0889C76.4672 29.1379 77.7515 25.2085 83.2754 23.9571C86.796 23.1572 88.1331 24.0731 88.8101 24.9582C89.4611 25.8029 89.7125 26.9421 89.7125 28.5376L89.7162 28.8304L85.3946 29.8574C85.3946 29.8574 85.3914 29.2749 85.3914 29.256C85.3946 27.3639 84.8687 26.6443 83.4944 26.9885C81.86 27.3989 81.1998 28.9502 81.1998 32.0344C81.1998 33.1293 81.2047 33.3256 81.2047 33.4734C81.2047 36.6078 81.6329 38.0425 83.5165 37.6482C85.1503 37.3106 85.3742 35.8758 85.4006 34.618C85.4038 34.4206 85.4119 33.7884 85.4119 33.7884L89.727 32.769C89.727 32.769 89.7313 33.0878 89.7313 33.4421C89.7206 37.5522 87.5544 40.1423 83.496 41.0868C77.9047 42.3975 76.8097 39.1666 76.636 34.0889Z" fill="#231F20"/>
<path d="M61.6969 41.0204C61.6969 37.2545 63.903 36.0635 67.2235 34.6897C70.2096 33.4546 70.2743 32.8413 70.2867 31.7679C70.3034 30.8645 69.8843 30.0915 68.3977 30.4707C67.902 30.5706 67.4546 30.835 67.128 31.221C66.8013 31.607 66.6147 32.0921 66.5983 32.5975C66.574 32.8749 66.5646 33.1535 66.5703 33.4319L62.3835 34.4206C62.3554 33.5862 62.4529 32.7524 62.6727 31.947C63.342 29.6951 65.3281 28.18 68.7564 27.3865C73.2107 26.3601 74.6957 28.3148 74.7011 31.3553V38.5555C74.7011 42.0377 75.3472 42.548 75.3472 42.548L71.2371 43.5205C71.0104 43.0456 70.8261 42.5515 70.6864 42.0442C70.6864 42.0442 69.7861 44.3117 66.6825 45.041C63.4229 45.8096 61.6969 43.7896 61.6969 41.0204ZM70.2581 35.878C69.5653 36.3637 68.834 36.792 68.0714 37.1585C66.7014 37.8279 66.0821 38.6536 66.0821 39.9255C66.0821 41.0269 66.7645 41.7502 68.0045 41.4439C69.3347 41.1084 70.2581 39.8673 70.2581 38.1429V35.878Z" fill="#231F20"/>
<path d="M6.33712 64.6622C5.86802 64.6616 5.40776 64.5346 5.00478 64.2944C4.60181 64.0543 4.27103 63.71 4.04727 63.2977C3.82351 62.8854 3.71505 62.4204 3.7333 61.9517C3.75155 61.4829 3.89584 61.0278 4.15097 60.6341L4.1801 60.5964L4.22919 60.5834L10.3664 59.1346V63.7954L10.2709 63.8175C8.87873 64.1525 7.21471 64.5338 6.8722 64.6067C6.69628 64.6439 6.51693 64.6625 6.33712 64.6622Z" fill="#231F20"/>
<path d="M6.33713 70.6245C5.64653 70.6247 4.98413 70.3506 4.49551 69.8626C4.00688 69.3746 3.73202 68.7126 3.73133 68.022C3.72992 67.5188 3.8758 67.0263 4.15098 66.605L4.18011 66.5614L4.22919 66.5489L10.3664 65.1007V69.7615L10.2709 69.7863C8.87873 70.1202 7.21471 70.5058 6.8722 70.5743C6.6959 70.6084 6.51669 70.6252 6.33713 70.6245Z" fill="#231F20"/>
<path d="M6.33713 76.5982C5.64635 76.5978 4.98396 76.3233 4.4954 75.835C4.00684 75.3466 3.73204 74.6843 3.73134 73.9936C3.72939 73.4903 3.87532 72.9976 4.15099 72.5766L4.18011 72.5297L10.3664 71.0717V75.7325L10.2709 75.7574C8.80053 76.1112 7.1678 76.4801 6.87221 76.5454C6.69604 76.5806 6.5168 76.5983 6.33713 76.5982Z" fill="#231F20"/>
<path d="M5.61295 58.9511L5.61133 32.8726L10.366 31.749V57.827L5.61295 58.9511Z" fill="#231F20"/>
<path d="M17.4558 56.7324C17.4558 55.9544 17.1467 55.2083 16.5966 54.6582C16.0465 54.108 15.3003 53.799 14.5223 53.799C13.7443 53.799 12.9982 54.108 12.4481 54.6582C11.8979 55.2083 11.5889 55.9544 11.5889 56.7324L11.5937 81.1065C11.5963 83.2113 12.4333 85.2293 13.9212 86.7182C15.409 88.207 17.4265 89.0453 19.5314 89.0494C21.7521 89.0494 27.8353 89.0386 27.8353 89.0386L27.838 78.8702C27.8396 73.3146 27.8407 67.6597 27.8407 67.5308C27.8414 66.8987 27.6861 66.2761 27.3885 65.7184C27.0908 65.1608 26.6601 64.6852 26.1346 64.3339L18.7336 59.3074C18.7336 59.3074 18.732 70.2201 18.732 70.7218C18.732 70.8891 18.6655 71.0497 18.5472 71.168C18.4288 71.2864 18.2683 71.3529 18.1009 71.3529C17.9335 71.3529 17.773 71.2864 17.6547 71.168C17.5363 71.0497 17.4698 70.8891 17.4698 70.7218C17.4698 70.5993 17.4558 58.24 17.4558 56.7324Z" fill="#231F20"/>
<path d="M21.4176 38.547C20.5183 38.7557 19.6746 39.156 18.9442 39.7207C18.2138 40.2854 17.614 41.0011 17.1856 41.8189V39.986L12.9044 40.999L12.9093 52.7036C13.6603 52.4066 14.4787 52.323 15.2742 52.4621C16.0697 52.6011 16.8113 52.9574 17.417 53.4916V45.9343C17.417 44.1242 18.3177 42.6781 19.6047 42.3944C20.5729 42.1819 21.3815 42.5281 21.3815 44.2525L21.3847 55.2786L25.894 54.2214V42.5573C25.894 39.7293 24.805 37.7525 21.4176 38.547Z" fill="#231F20"/>
<path d="M86.935 21.8562C86.3836 21.8567 85.8444 21.6936 85.3857 21.3875C84.9269 21.0815 84.5693 20.6463 84.358 20.1369C84.1467 19.6276 84.0912 19.067 84.1986 18.5262C84.306 17.9853 84.5714 17.4884 84.9613 17.0984C85.3511 16.7084 85.8479 16.4428 86.3887 16.3352C86.9296 16.2277 87.4902 16.2829 87.9996 16.494C88.509 16.7051 88.9444 17.0626 89.2506 17.5211C89.5568 17.9797 89.7201 18.5189 89.7199 19.0703C89.7192 19.8087 89.4256 20.5168 88.9035 21.039C88.3814 21.5613 87.6735 21.8552 86.935 21.8562ZM86.935 16.6323C86.4529 16.6322 85.9816 16.775 85.5807 17.0428C85.1798 17.3105 84.8673 17.6911 84.6827 18.1365C84.4981 18.5818 84.4497 19.0719 84.5437 19.5447C84.6376 20.0176 84.8697 20.4519 85.2105 20.7929C85.5513 21.1339 85.9856 21.3661 86.4584 21.4603C86.9312 21.5544 87.4213 21.5063 87.8668 21.3219C88.3122 21.1375 88.6929 20.8252 88.9609 20.4244C89.2288 20.0236 89.3719 19.5524 89.372 19.0703C89.3714 18.424 89.1146 17.8044 88.6577 17.3473C88.2008 16.8902 87.5813 16.6331 86.935 16.6323Z" fill="#231F20"/>
<path d="M85.92 17.4094H87.1213C87.2387 17.3968 87.3574 17.4109 87.4687 17.4505C87.5799 17.4902 87.6808 17.5544 87.7638 17.6384C87.8468 17.7224 87.9097 17.8241 87.948 17.9358C87.9863 18.0475 87.9989 18.1665 87.9848 18.2837C87.9848 18.7249 87.789 19.0642 87.4179 19.1219V19.1284C87.7556 19.1629 87.9331 19.349 87.9503 19.8274C87.9568 20.0432 87.96 20.3107 87.9703 20.5189C87.9704 20.5775 87.9853 20.6351 88.0134 20.6864C88.0416 20.7378 88.0822 20.7813 88.1315 20.8129H87.5177C87.4592 20.7229 87.4274 20.6181 87.426 20.5108C87.4071 20.3075 87.412 20.1154 87.4028 19.8684C87.3937 19.4973 87.2798 19.335 86.9071 19.335H86.4627V20.8129H85.92V17.4094ZM86.8974 18.925C86.9712 18.9318 87.0455 18.9221 87.1151 18.8966C87.1847 18.8712 87.2477 18.8306 87.2997 18.7778C87.3517 18.725 87.3913 18.6613 87.4156 18.5914C87.44 18.5214 87.4485 18.4469 87.4406 18.3732C87.4406 18.0102 87.2836 17.8193 86.926 17.8193H86.4627V18.925H86.8974Z" fill="#231F20"/>
</g>
</g>
<defs>
<clipPath>
<rect width="94" height="94" fill="white"/>
</clipPath>
</defs>
</svg>

<svg xmlns="http://www.w3.org/2000/svg" width="94" height="94" fill="none"><g clip-path="url(#clip0_197_286)" mask="url(#mask0_197_286)"><path fill="#FDB913" d="M9.17 1.6h75.66a7.57 7.57 0 0 1 7.57 7.57v75.66a7.57 7.57 0 0 1-7.57 7.57H9.17a7.57 7.57 0 0 1-7.57-7.57V9.17A7.57 7.57 0 0 1 9.17 1.6Z"/><path fill="#fff" d="M84.83 1.6a7.57 7.57 0 0 1 7.57 7.57v75.66a7.57 7.57 0 0 1-7.57 7.57H9.17a7.57 7.57 0 0 1-7.57-7.57V9.17A7.57 7.57 0 0 1 9.17 1.6h75.66Zm0-1.6H9.17A9.18 9.18 0 0 0 0 9.17v75.66A9.18 9.18 0 0 0 9.17 94h75.66A9.18 9.18 0 0 0 94 84.83V9.17A9.18 9.18 0 0 0 84.83 0Z"/><path fill="#231F20" d="M52.3 47.98V31.72l4.23-1v2.13s1.1-2.8 3.65-3.46c.39-.12.8-.15 1.18-.07v4.14c-.76.01-1.51.17-2.22.47-1.57.62-2.36 1.97-2.36 4.03v8.98l-4.48 1.04ZM29.93 53.27s-.7-1.04-.7-4.7v-8.09l-2.17.52v-3.34l2.18-.51V33.5l4.52-1.06v3.63l3.18-.75v3.33l-3.18.75v8.24c0 3.75 1 4.47 1 4.47l-4.83 1.15ZM37.42 43.6c0-2.9.4-5 1.3-6.62 1.04-1.92 2.77-3.17 5.28-3.74 4.95-1.13 6.73 1.8 6.66 5.73-.02 1.4-.01 2.09-.01 2.09l-8.73 2.05v.14c0 2.74.58 4.05 2.32 3.68 1.5-.32 1.92-1.26 2.04-2.43.02-.18.03-.66.03-.66l4.08-.98v.71c-.03 1.56-.48 5.43-6.16 6.77-5.38 1.28-6.81-2-6.81-6.74Zm6.76-7.34c-1.45.33-2.2 1.75-2.24 4.1l4.39-1.05v-.7c0-1.78-.55-2.71-2.15-2.35ZM76.64 34.09c-.17-4.95 1.11-8.88 6.64-10.13 3.52-.8 4.85.11 5.53 1 .65.84.9 1.98.9 3.58v.29l-4.32 1.03v-.6c0-1.9-.52-2.62-1.9-2.27-1.63.4-2.29 1.96-2.29 5.04v1.44c0 3.14.43 4.57 2.32 4.18 1.63-.34 1.85-1.77 1.88-3.03l.01-.83 4.32-1.02v.67c0 4.11-2.18 6.7-6.23 7.65-5.6 1.3-6.69-1.92-6.86-7ZM61.7 41.02c0-3.77 2.2-4.96 5.52-6.33 2.99-1.24 3.05-1.85 3.07-2.92.01-.9-.4-1.68-1.9-1.3a2.24 2.24 0 0 0-1.8 2.13c-.02.27-.03.55-.02.83l-4.19 1c-.02-.84.07-1.68.3-2.48.66-2.25 2.65-3.77 6.08-4.56 4.45-1.03 5.94.92 5.94 3.97v7.2c0 3.48.65 3.99.65 3.99l-4.11.97a8.93 8.93 0 0 1-.55-1.48s-.9 2.27-4 3c-3.27.77-5-1.25-5-4.02Zm8.56-5.14c-.7.48-1.43.91-2.19 1.28-1.37.67-1.99 1.5-1.99 2.77 0 1.1.68 1.82 1.92 1.51 1.33-.33 2.26-1.57 2.26-3.3v-2.26ZM6.34 64.66a2.6 2.6 0 0 1-2.19-4.03l.03-.03.05-.02 6.14-1.45v4.67l-.1.02-3.4.79c-.17.03-.35.05-.53.05ZM6.34 70.62a2.6 2.6 0 0 1-2.19-4.02l.03-.04.05-.01 6.14-1.45v4.66l-.1.03c-1.4.33-3.06.72-3.4.78-.17.04-.35.06-.53.05ZM6.34 76.6a2.6 2.6 0 0 1-2.19-4.02l.03-.05 6.19-1.46v4.66l-.1.03-3.4.79c-.17.03-.35.05-.53.05ZM5.61 58.95V32.87l4.76-1.12v26.08L5.6 58.95ZM17.46 56.73a2.93 2.93 0 0 0-5.87 0v24.38a7.95 7.95 0 0 0 7.94 7.94l8.3-.01V78.87l.01-11.34a3.84 3.84 0 0 0-1.7-3.2l-7.4-5.02v11.41a.63.63 0 0 1-1.27 0l-.01-13.99ZM21.42 38.55a6.41 6.41 0 0 0-4.23 3.27v-1.83l-4.29 1V52.7a4.38 4.38 0 0 1 4.52.8v-7.57c0-1.8.9-3.25 2.18-3.54.97-.2 1.78.14 1.78 1.86v11.03l4.51-1.06V42.56c0-2.83-1.09-4.8-4.47-4.01ZM86.94 21.86a2.79 2.79 0 1 1-.01-5.58 2.79 2.79 0 0 1 0 5.58Zm0-5.23a2.44 2.44 0 1 0 0 4.88 2.44 2.44 0 0 0 0-4.88Z"/><path fill="#231F20" d="M85.92 17.4h1.2a.79.79 0 0 1 .86.88c0 .44-.2.78-.56.84.34.04.51.23.53.7l.02.7a.35.35 0 0 0 .16.3h-.61a.57.57 0 0 1-.1-.3c-.01-.21 0-.4-.02-.65 0-.37-.12-.54-.5-.54h-.44v1.48h-.54v-3.4Zm.98 1.53a.5.5 0 0 0 .54-.56c0-.36-.16-.55-.51-.55h-.47v1.1h.44Z"/></g></svg>
